configs/network-logos/lightlink.svg

<svg width="118" height="24" viewBox="0 0 118 24" fill="none" xmlns="http://www.w3.org/2000/svg">
<g clip-path="url(#clip0_10152_72995)">
<path d="M12.6614 14.3711C12.2264 14.8526 12.2273 15.6426 12.6639 16.1259L15.8352 19.6365C16.2719 20.1199 16.9846 20.1209 17.4204 19.6394C17.8553 19.158 17.8545 18.3679 17.4178 17.8846L14.2466 14.374C13.8099 13.8906 13.0971 13.8897 12.6614 14.3711Z" fill="url(#paint0_linear_10152_72995)"/>
<path d="M23.4522 12.9604C23.8889 12.477 23.8897 11.687 23.4548 11.2056C23.0199 10.7241 22.3063 10.7251 21.8696 11.2085L17.4212 16.1329C16.9846 16.6162 17.0631 16.5293 16.6273 17.0117C15.6418 18.1026 14.2939 17.9326 13.8573 17.4492C13.8573 17.4492 15.8351 19.6387 15.836 19.6396C16.2709 20.1211 16.9846 20.1201 17.4212 19.6368L23.4522 12.9604Z" fill="url(#paint1_linear_10152_72995)"/>
<path d="M29.8151 11.2312C29.3802 10.7498 28.6665 10.7507 28.2299 11.2341L25.0586 14.7447C24.622 15.2281 24.6211 16.0171 25.056 16.4995C25.4909 16.981 26.2046 16.98 26.6412 16.4966L29.8125 12.986C30.2491 12.5027 30.25 11.7136 29.8151 11.2312Z" fill="url(#paint2_linear_10152_72995)"/>
<path d="M17.4409 12.6287C17.8759 12.1472 17.875 11.3572 17.4383 10.8738L14.2671 7.36324C13.8304 6.87988 13.1176 6.87892 12.6819 7.36038C12.2469 7.84183 12.2478 8.63183 12.6845 9.1152L15.8557 12.6258C16.2924 13.1092 17.0052 13.1101 17.4409 12.6287Z" fill="url(#paint3_linear_10152_72995)"/>
<path d="M6.64771 14.0396C6.21107 14.523 6.2102 15.313 6.64512 15.7944C7.08004 16.2759 7.79369 16.2749 8.23033 15.7916L12.6787 10.8672C13.1154 10.3838 13.0369 10.4707 13.4726 9.98831C14.4581 8.8974 15.806 9.06744 16.2427 9.5508C16.2427 9.5508 14.2648 7.36133 14.2639 7.36038C13.829 6.87892 13.1154 6.87988 12.6787 7.36324L6.64771 14.0396Z" fill="url(#paint4_linear_10152_72995)"/>
<path d="M0.325542 15.7802C0.76046 16.2617 1.4741 16.2607 1.91075 15.7773L5.08202 12.2667C5.51867 11.7834 5.51953 10.9934 5.08461 10.5119C4.64969 10.0305 3.93605 10.0314 3.49941 10.5148L0.328131 14.0254C-0.108512 14.5088 -0.109375 15.2978 0.325542 15.7802Z" fill="url(#paint5_linear_10152_72995)"/>
<rect x="115.6" y="16.6" width="2.4" height="2.4" fill="#6A81FF"/>
<path d="M37 19.0089V8.69105H39.4938V16.9836H43.7862V19.0089H37Z" fill="black"/>
<path d="M47.9257 8.69105V19.0089H45.4319V8.69105H47.9257Z" fill="black"/>
<path d="M56.6171 12.0615C56.56 11.8499 56.476 11.6635 56.3652 11.5023C56.2543 11.3377 56.1183 11.1983 55.9571 11.0841C55.7959 10.9699 55.6111 10.8843 55.4029 10.8272C55.1947 10.7667 54.9663 10.7365 54.7177 10.7365C54.2173 10.7365 53.784 10.8574 53.4179 11.0992C53.0552 11.3411 52.7747 11.6937 52.5766 12.1572C52.3784 12.6174 52.2793 13.1766 52.2793 13.8349C52.2793 14.4965 52.375 15.0608 52.5665 15.5276C52.7579 15.9945 53.035 16.3505 53.3978 16.5957C53.7605 16.8409 54.2005 16.9635 54.7177 16.9635C55.1745 16.9635 55.5607 16.8896 55.8765 16.7418C56.1955 16.5907 56.4374 16.3774 56.6019 16.102C56.7665 15.8266 56.8488 15.5025 56.8488 15.1296L57.3123 15.1851H54.8034V13.3663H59.2519V14.7316C59.2519 15.6553 59.0555 16.4462 58.6625 17.1046C58.2729 17.7629 57.7355 18.2683 57.0503 18.621C56.3685 18.9737 55.5843 19.15 54.6976 19.15C53.7135 19.15 52.8486 18.9367 52.103 18.5102C51.3574 18.0836 50.7763 17.4757 50.3598 16.6864C49.9434 15.8937 49.7351 14.9533 49.7351 13.8651C49.7351 13.0187 49.8611 12.268 50.113 11.6131C50.3649 10.9548 50.7158 10.3973 51.1659 9.94048C51.6193 9.4837 52.1433 9.13776 52.7378 8.90265C53.3356 8.66754 53.9788 8.54999 54.6673 8.54999C55.2652 8.54999 55.821 8.63563 56.3349 8.80693C56.8522 8.97822 57.3089 9.22005 57.7053 9.5324C58.1049 9.84476 58.4291 10.2159 58.6776 10.6458C58.9261 11.0757 59.0806 11.5476 59.1411 12.0615H56.6171Z" fill="black"/>
<path d="M61.0765 19.0089V8.69105H63.5703V12.8323H67.636V8.69105H70.1247V19.0089H67.636V14.8626H63.5703V19.0089H61.0765Z" fill="black"/>
<path d="M71.7062 10.7163V8.69105H80.427V10.7163H77.2984V19.0089H74.8398V10.7163H71.7062Z" fill="black"/>
<path d="M81.9996 19.0089V8.69105H84.4934V16.9836H88.7858V19.0089H81.9996Z" fill="black"/>
<path d="M92.9253 8.69105V19.0089H90.4315V8.69105H92.9253Z" fill="black"/>
<path d="M103.627 8.69105V19.0089H101.511L97.4049 13.054H97.3394V19.0089H94.8456V8.69105H96.9918L101.052 14.6359H101.138V8.69105H103.627Z" fill="black"/>
<path d="M105.55 19.0089V8.69105H108.043V13.054H108.179L111.59 8.69105H114.527L110.87 13.2958L114.593 19.0089H111.61L109.041 14.9533L108.043 16.2128V19.0089H105.55Z" fill="black"/>
</g>
<defs>
<linearGradient id="paint0_linear_10152_72995" x1="9.67216" y1="11.1318" x2="18.7456" y2="19.2314" gradientUnits="userSpaceOnUse">
<stop offset="0.12" stop-color="#6978FF"/>
<stop offset="0.19" stop-color="#5F87FF"/>
<stop offset="0.35" stop-color="#4DA4FF"/>
<stop offset="0.51" stop-color="#40B9FF"/>
<stop offset="0.66" stop-color="#38C6FF"/>
<stop offset="0.81" stop-color="#36CBFF"/>
<stop offset="1" stop-color="#67FFFC"/>
</linearGradient>
<linearGradient id="paint1_linear_10152_72995" x1="7.90393" y1="27.4403" x2="34.9095" y2="2.36234" gradientUnits="userSpaceOnUse">
<stop offset="0.39" stop-color="#6978FF"/>
<stop offset="0.44" stop-color="#6184FF"/>
<stop offset="0.65" stop-color="#49AAFF"/>
<stop offset="0.81" stop-color="#3BC2FF"/>
<stop offset="0.91" stop-color="#36CBFF"/>
<stop offset="1" stop-color="#67FFFC"/>
</linearGradient>
<linearGradient id="paint2_linear_10152_72995" x1="29.2369" y1="12.0145" x2="8.41343" y2="29.4781" gradientUnits="userSpaceOnUse">
<stop offset="0.05" stop-color="#6978FF"/>
<stop offset="0.12" stop-color="#5F87FF"/>
<stop offset="0.3" stop-color="#4DA4FF"/>
<stop offset="0.48" stop-color="#40B9FF"/>
<stop offset="0.65" stop-color="#38C6FF"/>
<stop offset="0.81" stop-color="#36CBFF"/>
<stop offset="1" stop-color="#67FFFC"/>
</linearGradient>
<linearGradient id="paint3_linear_10152_72995" x1="13.8235" y1="8.16757" x2="17.1266" y2="12.1462" gradientUnits="userSpaceOnUse">
<stop offset="0.12" stop-color="#6978FF"/>
<stop offset="0.19" stop-color="#5F87FF"/>
<stop offset="0.35" stop-color="#4DA4FF"/>
<stop offset="0.51" stop-color="#40B9FF"/>
<stop offset="0.66" stop-color="#38C6FF"/>
<stop offset="0.81" stop-color="#36CBFF"/>
<stop offset="1" stop-color="#67FFFC"/>
</linearGradient>
<linearGradient id="paint4_linear_10152_72995" x1="2.85685" y1="22.9761" x2="15.8414" y2="9.17734" gradientUnits="userSpaceOnUse">
<stop offset="0.31" stop-color="#6978FF"/>
<stop offset="0.36" stop-color="#5F87FF"/>
<stop offset="0.48" stop-color="#4DA4FF"/>
<stop offset="0.59" stop-color="#40B9FF"/>
<stop offset="0.7" stop-color="#38C6FF"/>
<stop offset="0.81" stop-color="#36CBFF"/>
<stop offset="1" stop-color="#67FFFC"/>
</linearGradient>
<linearGradient id="paint5_linear_10152_72995" x1="14.1074" y1="-1.32381" x2="0.226841" y2="13.0492" gradientUnits="userSpaceOnUse">
<stop stop-color="#6978FF"/>
<stop offset="0.09" stop-color="#5F87FF"/>
<stop offset="0.28" stop-color="#4DA4FF"/>
<stop offset="0.46" stop-color="#40B9FF"/>
<stop offset="0.64" stop-color="#38C6FF"/>
<stop offset="0.81" stop-color="#36CBFF"/>
<stop offset="1" stop-color="#67FFFC"/>
</linearGradient>
<clipPath id="clip0_10152_72995">
<rect width="118" height="24" fill="white"/>
</clipPath>
</defs>
</svg>

<svg xmlns="http://www.w3.org/2000/svg" fill="none" viewBox="0 0 118 24">
  <g clip-path="url(#lightlink_svg__a)">
    <path fill="url(#lightlink_svg__b)" d="M12.661 14.371a1.34 1.34 0 0 0 .003 1.755l3.171 3.51c.437.484 1.15.485 1.585.003.435-.481.434-1.271-.002-1.754l-3.171-3.511a1.05 1.05 0 0 0-1.586-.003Z"/>
    <path fill="url(#lightlink_svg__c)" d="M23.452 12.96c.437-.483.438-1.273.003-1.754a1.049 1.049 0 0 0-1.585.003l-4.449 4.924-.794.879c-.985 1.09-2.333.92-2.77.437l1.979 2.19a1.05 1.05 0 0 0 1.585-.002l6.031-6.677Z"/>
    <path fill="url(#lightlink_svg__d)" d="M29.815 11.231a1.05 1.05 0 0 0-1.585.003l-3.171 3.51a1.341 1.341 0 0 0-.003 1.756 1.05 1.05 0 0 0 1.585-.003l3.172-3.511a1.341 1.341 0 0 0 .002-1.755Z"/>
    <path fill="url(#lightlink_svg__e)" d="M17.44 12.629a1.34 1.34 0 0 0-.002-1.755l-3.17-3.51a1.05 1.05 0 0 0-1.586-.004 1.342 1.342 0 0 0 .002 1.755l3.172 3.51a1.05 1.05 0 0 0 1.585.004Z"/>
    <path fill="url(#lightlink_svg__f)" d="M6.648 14.04c-.437.483-.438 1.273-.003 1.754a1.05 1.05 0 0 0 1.585-.002l4.449-4.925.794-.879c.985-1.09 2.333-.92 2.77-.437 0 0-1.978-2.19-1.98-2.19a1.05 1.05 0 0 0-1.584.002L6.648 14.04Z"/>
    <path fill="url(#lightlink_svg__g)" d="M.326 15.78c.434.482 1.148.48 1.585-.003l3.171-3.51c.437-.484.438-1.274.003-1.755a1.05 1.05 0 0 0-1.586.003l-3.17 3.51a1.341 1.341 0 0 0-.003 1.755Z"/>
    <path fill="#6A81FF" d="M115.6 16.6h2.4V19h-2.4z"/>
    <path fill="#000" d="M37 19.009V8.69h2.494v8.293h4.292v2.025H37ZM47.926 8.691V19.01h-2.494V8.69h2.494Zm8.691 3.371a1.811 1.811 0 0 0-.252-.56 1.612 1.612 0 0 0-.408-.418 1.75 1.75 0 0 0-.554-.257 2.449 2.449 0 0 0-.685-.09c-.5 0-.934.12-1.3.362-.363.242-.643.595-.841 1.058-.199.46-.298 1.02-.298 1.678 0 .661.096 1.226.287 1.693.192.466.469.822.832 1.068.362.245.802.367 1.32.367.456 0 .843-.073 1.158-.221.32-.151.561-.365.726-.64.165-.275.247-.6.247-.972l.463.055h-2.509v-1.819h4.449v1.366c0 .923-.197 1.714-.59 2.373a3.92 3.92 0 0 1-1.612 1.516c-.681.353-1.466.529-2.352.529-.984 0-1.85-.213-2.595-.64a4.434 4.434 0 0 1-1.743-1.824c-.417-.792-.625-1.733-.625-2.82 0-.847.126-1.598.378-2.253a4.782 4.782 0 0 1 1.053-1.673 4.55 4.55 0 0 1 1.572-1.037 5.225 5.225 0 0 1 1.93-.353c.597 0 1.153.086 1.667.257.517.171.974.413 1.37.725.4.313.724.684.973 1.114.248.43.403.902.463 1.415h-2.524Zm4.46 6.947V8.69h2.493v4.141h4.066v-4.14h2.489V19.01h-2.489v-4.146H63.57v4.146h-2.493Zm10.629-8.293V8.691h8.721v2.025h-3.129v8.293H74.84v-8.293h-3.134ZM82 19.009V8.69h2.493v8.293h4.293v2.025H82ZM92.925 8.691V19.01h-2.493V8.69h2.493Zm10.702 0V19.01h-2.116l-4.106-5.955h-.066v5.955h-2.493V8.69h2.146l4.06 5.945h.086V8.69h2.489Zm1.923 10.318V8.69h2.493v4.363h.136l3.411-4.363h2.937l-3.657 4.605 3.723 5.713h-2.983l-2.569-4.056-.998 1.26v2.796h-2.493Z"/>
  </g>
  <defs>
    <linearGradient id="lightlink_svg__b" x1="9.672" x2="18.746" y1="11.132" y2="19.231" gradientUnits="userSpaceOnUse">
      <stop offset=".12" stop-color="#6978FF"/>
      <stop offset=".19" stop-color="#5F87FF"/>
      <stop offset=".35" stop-color="#4DA4FF"/>
      <stop offset=".51" stop-color="#40B9FF"/>
      <stop offset=".66" stop-color="#38C6FF"/>
      <stop offset=".81" stop-color="#36CBFF"/>
      <stop offset="1" stop-color="#67FFFC"/>
    </linearGradient>
    <linearGradient id="lightlink_svg__c" x1="7.904" x2="34.91" y1="27.44" y2="2.362" gradientUnits="userSpaceOnUse">
      <stop offset=".39" stop-color="#6978FF"/>
      <stop offset=".44" stop-color="#6184FF"/>
      <stop offset=".65" stop-color="#49AAFF"/>
      <stop offset=".81" stop-color="#3BC2FF"/>
      <stop offset=".91" stop-color="#36CBFF"/>
      <stop offset="1" stop-color="#67FFFC"/>
    </linearGradient>
    <linearGradient id="lightlink_svg__d" x1="29.237" x2="8.413" y1="12.014" y2="29.478" gradientUnits="userSpaceOnUse">
      <stop offset=".05" stop-color="#6978FF"/>
      <stop offset=".12" stop-color="#5F87FF"/>
      <stop offset=".3" stop-color="#4DA4FF"/>
      <stop offset=".48" stop-color="#40B9FF"/>
      <stop offset=".65" stop-color="#38C6FF"/>
      <stop offset=".81" stop-color="#36CBFF"/>
      <stop offset="1" stop-color="#67FFFC"/>
    </linearGradient>
    <linearGradient id="lightlink_svg__e" x1="13.823" x2="17.127" y1="8.168" y2="12.146" gradientUnits="userSpaceOnUse">
      <stop offset=".12" stop-color="#6978FF"/>
      <stop offset=".19" stop-color="#5F87FF"/>
      <stop offset=".35" stop-color="#4DA4FF"/>
      <stop offset=".51" stop-color="#40B9FF"/>
      <stop offset=".66" stop-color="#38C6FF"/>
      <stop offset=".81" stop-color="#36CBFF"/>
      <stop offset="1" stop-color="#67FFFC"/>
    </linearGradient>
    <linearGradient id="lightlink_svg__f" x1="2.857" x2="15.841" y1="22.976" y2="9.177" gradientUnits="userSpaceOnUse">
      <stop offset=".31" stop-color="#6978FF"/>
      <stop offset=".36" stop-color="#5F87FF"/>
      <stop offset=".48" stop-color="#4DA4FF"/>
      <stop offset=".59" stop-color="#40B9FF"/>
      <stop offset=".7" stop-color="#38C6FF"/>
      <stop offset=".81" stop-color="#36CBFF"/>
      <stop offset="1" stop-color="#67FFFC"/>
    </linearGradient>
    <linearGradient id="lightlink_svg__g" x1="14.107" x2=".227" y1="-1.324" y2="13.049" gradientUnits="userSpaceOnUse">
      <stop stop-color="#6978FF"/>
      <stop offset=".09" stop-color="#5F87FF"/>
      <stop offset=".28" stop-color="#4DA4FF"/>
      <stop offset=".46" stop-color="#40B9FF"/>
      <stop offset=".64" stop-color="#38C6FF"/>
      <stop offset=".81" stop-color="#36CBFF"/>
      <stop offset="1" stop-color="#67FFFC"/>
    </linearGradient>
    <clipPath id="lightlink_svg__a">
      <path fill="#fff" d="M0 0h118v24H0z"/>
    </clipPath>
  </defs>
</svg>
